X: 1
T: the Old Polka
C: traditional
R: pokka
S: Fiddle Hell Online 2022-4-10 handout for Jennifer Wrigley workshop
Z: 2022 John Chambers <jc:trillian.mit.edu>
N: Phrase endings adjusted so ABC software can align them properly.
M: 4/4
L: 1/8
K: D
F>A |\
"D"B2 A2 A>f e>d | "G"c2 B2 B2 e>d | "A"c>d e>f g2 B>c | "D"d>e f<d A2 F>A |
"D"B2 A2 A>f e>d | "G"c2 B2 B2 e>d | "A"c>d e>f g>e B>c | "D"d2 d2 d2 :|
|: f>g |\
"D"a>f d>f A>f d<f | "D"a2 g>f "A"g2 e>f | "A"g>e c>e A>e c<e | "A"g2 f>e "D"f2 f>g |
"A"a>f d>f A>f d<f | "D"a2 g2 "G"B2 e>d | "A"c>d e>f g>e B>c | "D"d2 d2 d2 :|
